dist/svg/u1F680.svg

<?xml version="1.0" encoding="UTF-8"?><svg id="Layer_1" xmlns="http://www.w3.org/2000/svg" viewBox="0 0 40 40"><g><path d="M10.10062,34.49397c1.24136-1.24136,1.24136-3.25401,0-4.49537-1.24136-1.24136-3.25401-1.24136-4.49537,0-1.24136,1.24136-2.2652,6.76057-2.2652,6.76057,0,0,5.51921-1.02383,6.76057-2.2652Z" style="fill:#ff3d29;"/><path d="M15.08698,33.81256L6.29133,25.01692c-.29164-.29164-.19136-.78628,.19082-.94133l4.04442-1.64077,7.16608,7.16608-1.66589,4.0246c-.15707,.37947-.64939,.47746-.93979,.18705Z" style="fill:#8595aa;"/><path d="M35.62115,8.78867l-6.13975,26.11155c-.64302,2.73467-4.03864,3.70092-6.02508,1.71448L3.48451,16.64289c-1.98644-1.98644-1.0202-5.38206,1.71448-6.02508L31.31054,4.47806c2.5917-.6094,4.92001,1.71891,4.31061,4.31061Z" style="fill:#8595aa;"/><path d="M24.91352-1.00346h.00001c3.68857,0,6.68322,2.99465,6.68322,6.68322V31.37483h-13.36646V5.67977c0-3.68857,2.99465-6.68322,6.68322-6.68322Z" transform="translate(18.03491 -13.16874) rotate(45)" style="fill:#d0d6de;"/><circle cx="30.13138" cy="9.96783" r="3.84656" style="fill:#6ba0ff;"/></g><rect width="40" height="40" style="fill:none;"/></svg>

<svg id="Layer_1" data-name="Layer 1" xmlns="http://www.w3.org/2000/svg" viewBox="0 0 40 40"><defs><style>.cls-1{fill:#ff3d29;}.cls-2{fill:#8595aa;}.cls-3{fill:#d0d6de;}.cls-4{fill:#6ba0ff;}.cls-5{fill:none;}</style></defs><path class="cls-1" d="M10.1,34.494a3.179,3.179,0,1,0-4.5-4.5c-1.241,1.241-2.265,6.76-2.265,6.76S8.859,35.735,10.1,34.494Z"/><path class="cls-2" d="M15.087,33.813l-8.8-8.8a.576.576,0,0,1,.191-.941l4.045-1.641L17.693,29.6l-1.666,4.025A.577.577,0,0,1,15.087,33.813Z"/><path class="cls-2" d="M35.621,8.789,29.481,34.9a3.585,3.585,0,0,1-6.025,1.715L3.485,16.643A3.585,3.585,0,0,1,5.2,10.618l26.112-6.14A3.585,3.585,0,0,1,35.621,8.789Z"/><path class="cls-3" d="M24.914-1h0A6.683,6.683,0,0,1,31.6,5.68v25.7a0,0,0,0,1,0,0H18.23a0,0,0,0,1,0,0V5.68A6.683,6.683,0,0,1,24.914-1Z" transform="translate(18.035 -13.169) rotate(45)"/><circle class="cls-4" cx="30.131" cy="9.968" r="3.847"/><rect class="cls-5" width="40" height="40"/></svg>
